**kern	**kern	**dynam
*part1	*part1	*part1
*staff2	*staff1	*
*I"Piano	*	*
*clefF4	*clefG2	*
*k[b-e-a-]	*k[b-e-a-]	*
=1	=1	=1
!	!LO:TX:b:i:t=cresc.	!
2F 2c	2f 2a-	.
2F 2c	2f 2a-	.
=	=	=
2.E- 2.c-X	2.f 2.a-	sf
4E- 4c-	4f 4a-	.
=	=	=
(4D 4B-	2.a- 2.ff	f
4BB-	.	.
4Cn	.	.
4D) 4B-	4f 4a-	.
=	=	=
4E- 4B-	(4f 4a-	.
4E- 4B-	4e-) 4g	.
4r	4r	.
4E- 4B-	4e- 4g	.
=	=	=
4.AAn 4.An	4.c 4.e- 4.g-X	f
8AA 8A	8c 8e- 8g-	.
4AA' 4A	4c' 4e- 4g-	.
4AA' 4A	4c' 4e- 4g-	.
=	=	=
4BB-' 4B-	4e-' 4g-X	.
4BBB-' 4BB-	4d' 4f	.
(2B-	4r	.
.	[4f [4dd	p
=	=	=
2An)	4f] 4dd]	.
.	2g-X 2ee-	.
2AAn	.	.
.	[4e- [4g-	.
=	=	=
4BB-	(4e-] 4g-]	.
4B-	4d) 4f	.
2r	2b-	pp
=	=	=
*-	*-	*-
!!!system-decoration: {(s1,s2)}
